gtk-icons/Papirus-GTK/16x16/actions/taxes-finances.svg

<?xml version="1.0" encoding="UTF-8" standalone="no"?>
<!-- Created with Inkscape (http://www.inkscape.org/) -->

<svg
   xmlns:dc="http://purl.org/dc/elements/1.1/"
   xmlns:cc="http://creativecommons.org/ns#"
   xmlns:rdf="http://www.w3.org/1999/02/22-rdf-syntax-ns#"
   xmlns:svg="http://www.w3.org/2000/svg"
   xmlns="http://www.w3.org/2000/svg"
   xmlns:sodipodi="http://sodipodi.sourceforge.net/DTD/sodipodi-0.dtd"
   xmlns:inkscape="http://www.inkscape.org/namespaces/inkscape"
   width="16"
   height="16"
   id="svg3049"
   version="1.1"
   inkscape:version="0.91 r13725"
   sodipodi:docname="taxes-finances.svg"
   inkscape:export-filename="/home/uri/.kde/share/icons/NITRUX-KDE/16x16/actions/view-right-new.png"
   inkscape:export-xdpi="30"
   inkscape:export-ydpi="30">
  <defs
     id="defs3051">
    <style
       type="text/css"
       id="current-color-scheme">
      .ColorScheme-Text {
        color:#4d4d4d;
      }
      .ColorScheme-Background {
        color:#eff0f1;
      }
      .ColorScheme-Highlight {
        color:#3daee9;
      }
      .ColorScheme-ViewText {
        color:#31363b;
      }
      .ColorScheme-ViewBackground {
        color:#fcfcfc;
      }
      .ColorScheme-ViewHover {
        color:#93cee9;
      }
      .ColorScheme-ViewFocus{
        color:#3daee9;
      }
      .ColorScheme-ButtonText {
        color:#31363b;
      }
      .ColorScheme-ButtonBackground {
        color:#eff0f1;
      }
      .ColorScheme-ButtonHover {
        color:#93cee9;
      }
      .ColorScheme-ButtonFocus{
        color:#3daee9;
      }
      </style>
    <style
       id="current-color-scheme-7"
       type="text/css">
      .ColorScheme-Text {
        color:#4d4d4d;
      }
      .ColorScheme-Background {
        color:#eff0f1;
      }
      .ColorScheme-Highlight {
        color:#3daee9;
      }
      .ColorScheme-ViewText {
        color:#31363b;
      }
      .ColorScheme-ViewBackground {
        color:#fcfcfc;
      }
      .ColorScheme-ViewHover {
        color:#93cee9;
      }
      .ColorScheme-ViewFocus{
        color:#3daee9;
      }
      .ColorScheme-ButtonText {
        color:#31363b;
      }
      .ColorScheme-ButtonBackground {
        color:#eff0f1;
      }
      .ColorScheme-ButtonHover {
        color:#93cee9;
      }
      .ColorScheme-ButtonFocus{
        color:#3daee9;
      }
      </style>
  </defs>
  <sodipodi:namedview
     id="base"
     pagecolor="#ffffff"
     bordercolor="#666666"
     borderopacity="1.0"
     inkscape:pageopacity="0.0"
     inkscape:pageshadow="2"
     inkscape:zoom="23.94"
     inkscape:cx="3.890876"
     inkscape:cy="8.6902664"
     inkscape:document-units="px"
     inkscape:current-layer="layer1"
     showgrid="false"
     fit-margin-top="0"
     fit-margin-left="0"
     fit-margin-right="0"
     fit-margin-bottom="0"
     inkscape:window-width="1600"
     inkscape:window-height="847"
     inkscape:window-x="0"
     inkscape:window-y="30"
     inkscape:window-maximized="1"
     inkscape:showpageshadow="false"
     borderlayer="true"
     inkscape:object-nodes="true"
     showguides="false">
    <sodipodi:guide
       position="2.0000044,20.00003"
       orientation="18,0"
       id="guide4067" />
    <sodipodi:guide
       position="2.0000044,2.0000296"
       orientation="0,18"
       id="guide4069" />
    <sodipodi:guide
       position="20.000004,2.0000296"
       orientation="-18,0"
       id="guide4071" />
    <sodipodi:guide
       position="20.000004,20.00003"
       orientation="0,-18"
       id="guide4073" />
    <sodipodi:guide
       position="3.0000044,19.00003"
       orientation="16,0"
       id="guide4077" />
    <sodipodi:guide
       position="3.0000044,3.0000296"
       orientation="0,16"
       id="guide4079" />
    <sodipodi:guide
       position="19.000004,3.0000296"
       orientation="-16,0"
       id="guide4081" />
    <sodipodi:guide
       position="19.000004,19.00003"
       orientation="0,-16"
       id="guide4083" />
    <inkscape:grid
       type="xygrid"
       id="grid4085" />
    <sodipodi:guide
       position="11.000004,18.999969"
       orientation="0,-6"
       id="guide4175" />
    <sodipodi:guide
       position="9.9999739,18.999969"
       orientation="0,-4.9999695"
       id="guide4201" />
  </sodipodi:namedview>
  <metadata
     id="metadata3054">
    <rdf:RDF>
      <cc:Work
         rdf:about="">
        <dc:format>image/svg+xml</dc:format>
        <dc:type
           rdf:resource="http://purl.org/dc/dcmitype/StillImage" />
        <dc:title></dc:title>
      </cc:Work>
    </rdf:RDF>
  </metadata>
  <g
     inkscape:label="Capa 1"
     inkscape:groupmode="layer"
     id="layer1"
     transform="translate(-421.71429,-531.79074)">
    <g
       transform="translate(417.71429,-501.57146)"
       id="layer1-5"
       inkscape:label="Capa 1"
       style="opacity:0.5;fill:#000000;fill-opacity:1">
      <path
         style="font-style:normal;font-variant:normal;font-weight:normal;font-stretch:normal;font-size:13.49886227px;line-height:125%;font-family:Oxygen;-inkscape-font-specification:Oxygen;letter-spacing:0px;word-spacing:0px;fill:#000000;fill-opacity:1;stroke:none"
         d="M 6 0 L 6 1.1308594 C 5.0228267 1.272742 4.1906877 1.5299378 3.5371094 1.9316406 C 2.5265626 2.5465406 2.0214834 3.4897188 2.0214844 4.7617188 C 2.0169288 6.9570109 3.5789587 7.6803901 6 8.3457031 L 6 13.335938 C 4.8272813 13.236927 3.7551089 13.016504 2.6230469 12.533203 L 2 13.888672 C 2.5645099 14.189972 3.3272997 14.450828 4.2890625 14.673828 C 4.833341 14.796143 5.4002819 14.874405 6 14.927734 L 6 16 L 7 16 L 8 16 L 9 16 L 9 14.880859 C 10.996749 14.596007 12.979968 13.678603 12.958984 11.193359 C 12.889007 9.3642664 11.755864 8.6858489 9 7.7167969 L 9 2.7636719 C 9.903263 2.8844157 11.002058 3.135949 12.224609 3.7460938 L 13 2.203125 C 12.449416 1.907625 11.16891 1.4367187 10.353516 1.2617188 C 9.9200006 1.1691054 9.466997 1.1061138 9 1.0625 L 9 0 L 8 0 L 7 0 L 6 0 z M 6 2.7597656 L 6 6.7558594 C 4.7730055 6.3214857 3.6429588 5.6646591 3.6757812 4.5664062 C 3.6162325 3.525104 4.6802316 2.9756239 6 2.7597656 z M 9 9.2109375 C 10.281472 9.6594755 11.319699 10.246286 11.296875 11.275391 C 11.257992 12.671085 10.165263 13.158285 9 13.324219 L 9 9.2109375 z "
         transform="translate(4,1033.3622)"
         id="path3775" />
    </g>
  </g>
</svg>

<?xml version="1.0" encoding="UTF-8" standalone="no"?>
<!-- Created with Inkscape (http://www.inkscape.org/) -->
<svg id="svg3049" xmlns:rdf="http://www.w3.org/1999/02/22-rdf-syntax-ns#" xmlns="http://www.w3.org/2000/svg" height="16" width="16" version="1.1" xmlns:cc="http://creativecommons.org/ns#" xmlns:dc="http://purl.org/dc/elements/1.1/">
 <defs id="defs3051">
  <style id="current-color-scheme" type="text/css">.ColorScheme-Text {
        color:#4d4d4d;
      }
      .ColorScheme-Background {
        color:#eff0f1;
      }
      .ColorScheme-Highlight {
        color:#3daee9;
      }
      .ColorScheme-ViewText {
        color:#31363b;
      }
      .ColorScheme-ViewBackground {
        color:#fcfcfc;
      }
      .ColorScheme-ViewHover {
        color:#93cee9;
      }
      .ColorScheme-ViewFocus{
        color:#3daee9;
      }
      .ColorScheme-ButtonText {
        color:#31363b;
      }
      .ColorScheme-ButtonBackground {
        color:#eff0f1;
      }
      .ColorScheme-ButtonHover {
        color:#93cee9;
      }
      .ColorScheme-ButtonFocus{
        color:#3daee9;
      }</style>
  <style id="current-color-scheme-7" type="text/css">.ColorScheme-Text {
        color:#4d4d4d;
      }
      .ColorScheme-Background {
        color:#eff0f1;
      }
      .ColorScheme-Highlight {
        color:#3daee9;
      }
      .ColorScheme-ViewText {
        color:#31363b;
      }
      .ColorScheme-ViewBackground {
        color:#fcfcfc;
      }
      .ColorScheme-ViewHover {
        color:#93cee9;
      }
      .ColorScheme-ViewFocus{
        color:#3daee9;
      }
      .ColorScheme-ButtonText {
        color:#31363b;
      }
      .ColorScheme-ButtonBackground {
        color:#eff0f1;
      }
      .ColorScheme-ButtonHover {
        color:#93cee9;
      }
      .ColorScheme-ButtonFocus{
        color:#3daee9;
      }</style>
 </defs>
 <metadata id="metadata3054">
  <rdf:RDF>
   <cc:Work rdf:about="">
    <dc:format>image/svg+xml</dc:format>
    <dc:type rdf:resource="http://purl.org/dc/dcmitype/StillImage"/>
    <dc:title/>
   </cc:Work>
  </rdf:RDF>
 </metadata>
 <g id="layer1" transform="translate(-421.71 -531.79)">
  <g id="layer1-5" opacity=".5" transform="translate(417.71 -501.57)">
   <path id="path3775" d="m6 0v1.1309c-0.9772 0.1418-1.8093 0.399-2.4629 0.8007-1.0105 0.6149-1.5156 1.5581-1.5156 2.8301-0.0046 2.1953 1.5575 2.9187 3.9785 3.584v4.9903c-1.1727-0.099-2.2449-0.319-3.377-0.803l-0.623 1.356c0.5645 0.301 1.3273 0.562 2.2891 0.785 0.5442 0.122 1.1112 0.2 1.7109 0.254v1.072h1 1 1v-1.119c1.997-0.285 3.98-1.202 3.959-3.688-0.07-1.8287-1.203-2.5072-3.959-3.4762v-4.9531c0.9033 0.1207 2.002 0.3722 3.225 0.9824l0.775-1.543c-0.551-0.2955-1.831-0.7664-2.646-0.9414-0.434-0.0926-0.887-0.1556-1.354-0.1992v-1.0625h-1-1-1zm0 2.7598v3.9961c-1.227-0.4344-2.357-1.0912-2.3242-2.1895-0.0596-1.0413 1.0044-1.5908 2.3242-1.8066zm3 6.4511c1.281 0.4486 2.32 1.0351 2.297 2.0641-0.039 1.396-1.132 1.883-2.297 2.049v-4.1131z" transform="translate(4 1033.4)"/>
  </g>
 </g>
</svg>
